X:1
T:Padre del ciel doppo i perduti
T:Girolamo Scotto
T:Source : Madrigali a tre voci---Venetia---G.Scotto---1541. Editor : André Vierendeels (31/07/16).
T:Notes : Original clefs : C3, C4, F4 Editorial accidentals above the staff Original note values have been halved Square bracket indicates ligature Text by Francesco Petrarcha "Quinti toni"
T:-natural
T:b
T:Padre del ciel doppo i perduti
T:©
T:©
T:©
T:©
T:©
T:©
T:©
C:Girolamo Scotto
Z:©
%%score [ 1 2 3 ]
L:1/8
Q:1/4=106
M:2/2
K:F
V:1 treble-8 nm="Tenor 1" snm="T 1"
V:2 treble-8 nm="Tenor 2" snm="T 2"
V:3 bass nm="Bass" snm="B"
V:1
 c8 | d4 c4 | f6 d2 | _e2 d3 e f2- | fedc d4 | _e4 d4 | c6 d2 | B2 d2 d2 d2 | c2 c2 f4- | %9
w: Pa-|dre del|ciel, dop-|po'i _ per- du-||* ti|gior- *|ni, dop- po le|not- ti va-|
 f2 e2 d4 | _e2 d3 e f2 | B3 c d4 | _e4 d4- | d2 f4 e2 | f4 e4 | z2 c2 c2 c2 | B2 G2 A3 B | %17
w: * neg- gi-|an- do spe- *||||* se,|con quel fe-|ro de- si- *|
 c2 F2 F2 F2 | A2 G4 c2- | c2 B2 G2 B2 | A2 c4 B2 | c2 G2 c4 | F2 B2 B2 B2 | A2 d3 c/B/ c2 | %24
w: o, con quel fe-|ro de- si-|* * o, ch'al|cor s'ac- ce-|se, mi- ran-|do gli at- ti|per mio _ _ _|
 d2 d2 d2 d2 | f3 e d2 c2 | d2 c4 B2 | c2 G2 G2 G2 | B4 A3 B | c2 d4 cB | c2 d2 G4 | A8 || z8 | %33
w: mal, per mio mal|si'a- * * dor-||ni, per mi- o|mal si _|_ a- * *|* * dor-|ni.||
 z8 | z8 | z4 f4 | f2 f2 c4- | c2 c2 d2 _e2 | B3 c d2 c2- | c2 f4 e2 | f4 c4 | z2 f2 f2 f2 | %42
w: ||Pic-|ci- ca- ti'ho-|* mai, col tuo|lu- * * me,|_ ch'i- o|tor- ni,|ad al- tra|
 d2 d2 _e2 e2 | c2 c2 d2 G2 | B4 A2 c2- | c2 B2 c4 | z2 F2 c2 A2 | B4 A4 | G2 c2 =B2 c2- | %49
w: vi- ta, et a|piu bel- le im-|pre- * *|* * se,|si, ch'a- men-|do le|re- ti'n- dar- *|
"^b" cBAG A2 c2 | d2 f3 e/d/ e2 | f2 c2 d2 c2- | c2 f4 _e2 | d4 c4 | z2 f2 f2 f2 | _e2 e2 d2 d2 | %56
w: * * * * no, in-|dar- * * * *|* no, in- dar-|* no te-|* se,|il mio du-|ro'a- ver- sa- rio|
 c3 B A2 G2 | A2 FG AB c2- | c2 B2 c2 d2- | d2 cB A2 G2 | A2 B2 A2 d2 | d2 d2 c2 c2 | B4 A2 c2 | %63
w: se _ _ ne|scor- * * * * *|||* * ni, il|mio du- ro'a- ver-|sa- rio se|
 d2 e2 f4 | e2 c2 c2 c2 | d2 B2 c2 A2 | G2 c4 d2- | d2 c2 d4 | c8 |] %69
w: ne scor- *|ni, il mio du-|ro'a- ver- sa- rio|se ne scor-||ni.|
V:2
 z8 | z8 | F8 | G4 F4 | B6 G2 | G2 A2 B2 F2 | A8 | G2 F4 ED | E2 F2 DEFG | AB c4 B2 | G2 B3 A A2- | %11
w: ||Pa-|dre del|ciel, dop-|po'i per- du- ti|gior-|ni, dop- * *|* po le _ _ _|_ _ _ not-|ti va- * neg-|
 AG/F/ G2 A2 B2 | G3 A B4- | B2 A2 G4 | F2 A3 GAB | c3 B AG F2- | FE/D/ E2 F2 C2 | C2 C2 D2 D2 | %18
w: * * * * * gi-|an- do spe-||se, spe- * * *|se, _ _ _ _|_ _ _ _ _ con|quel fe- ro de-|
 F2 E3 DEF | G2 D2 D2 D2 | F3 E D4 | E8 | z2 D2 G4 | F4 G4 | A2 B2 B2 B2 | A3 G F2 E2 | D2 F2 D4 | %27
w: si- * * * *|o, ch'al cor s'ac-|ce- * *|se,|mi- ran-|do gli|at- ti per mio|mal- si'a- dor- *||
 E8 | D2 G2 F2 E2- | E2 F2 D2 G2- | GF F4 E2 | F8 || z8 | z8 | F4 F2 F2 | G4 F2 F2 | B3 B A2 A2 | %37
w: |ni, per mio mal|_ si a- dor-||ni.|||Piac- cia- ti'ho-|ma- i, col|tu- o lu- me,|
 G2 A2 B2 G2 | G2 G2 A4 | A2 B2 G4 | F2 A2 A2 A2 | B2 B2 A2 d2- | dcBA G2 c2- | cBAG F2 E2 | %44
w: ch'io tor- ni col|tu- o lu-|me, ch'io tor-|ni, ad al- tra|vi- ta, et a|_ _ _ _ piu bel-|* * * * le im-|
 D3 E F2 E2 | G2 D2 C2 F2- | F2 ED E2 F2 | D2 G4 F2 | G4 z4 | z2 F2 c2 A2 | B2 A4 c2 | %51
w: pre- * * *|se, a piu bel-|* * * le im-|pre- * *|se,|si, ch'a- ven-|do le re-|
 d2 A2 B2 G2 | A3 G AB c2- | c2 B2 cBAG | A2 F2 A2 B2 | G2 A2 BAGF |"^-natural" E2 F4 E2 | %57
w: tin- dar- * no|te- * * * *|* * se, _ _ _|_ il mio du-|ro'a- ver- sa- * * *|* * ri-|
 F2 D2 F3 E | D4 C2 F2- | F2 E2 F2 E2- | EF G4 F2 | G2 F3 G A2- | A2 G2 A3 G | AB c4 B2 | %64
w: o, se ne _|scor- ni, se|_ ne scor- *||ni, se _ ne|_ _ scor- *||
 c3 B AG A2- | A2 G3 F F2- |"^-natural" F2 E2 F4- | F4 F4- | F8 |] %69
w: |* ni, se ne|_ _ scor-|* ni.|_|
V:3
 z8 | z8 | z8 | z8 | B,,8 | C,4 B,,4 |"^-natural" F,6 D,2 |"^b" E,2 D,3 B,, B,,2 | A,,4 B,,4 | %9
w: ||||Pa-|dre del|ciel, dop-|po'i per- du- ti|gior- ni,|
"^-natural" z4 G,,4 | G,,2 G,,2 D,4 |"^b" E,4 D,2 B,,2 | C,4 G,,3 A,, | B,,2 F,,2 C,4 | F,,4 z4 | %15
w: dop-|po le not-|ti va- neg-|gian- do _|_ se spe-|se,|
 F,,8 | G,,4 F,,4 | A,,4 B,,4 | F,,2 C,2 C,2 A,,2 | G,,8 | F,,4 z2 G,,2 | C,6 A,,2 | %22
w: con|quel fe-|ro de-|sio, ch'al cor s'ac-|ce-|se, mi-|ran- do|
 B,,3 A,, G,,4 | D,4 _E,4 | D,2 G,,2 G,,2 G,,2 | D,6 A,,2 | B,,2 F,,2 G,,4 | C,8 | %28
w: gli at- ti|per- *|mio, per mio mal|si'a- dor-|||
 B,,2 G,,2 D,2 C,2- | C,2 B,,4 A,,G,, | A,,2 B,,2 C,4 | F,,8 || C,4 C,2 C,2 | D,4 C,4 | B,,6 A,,2 | %35
w: ni, per mio mal|_ si _ _|_ a- dor-|ni.|Pic- cia- ti'ho-|ma- i,|col tuo|
 G,,2 C,2 D,2 B,,2- | B,,C,D,E, F,4 | E,2 F,2 B,,2 C,2 |"^b" E,4 D,2 F,2- | F,2 B,,2 C,4 | %40
w: lu- me, ch'io tor-||* ni, ch'io tor-|ni, ch'io tor-|* * ni,|
 z2 F,2 F,2 F,2 | G,2 D,2 D,2 D,2 | G,4 C,4 | F,3 E, D,2 C,2 | B,,2 G,,2 D,2 C,2 | G,,4 A,,4 | %46
w: ad al- tra|vi- ta, et a|piu bel-|le _ _ im-|pre- se, et bel-|le im-|
 B,,4 A,,2 F,,2 | G,,4 D,4 | z2 C,2 G,2 E,2 | F,6 F,2 | D,6 C,2 | B,,2 F,4 E,2 | F,2 D,2 C,4 | %53
w: pre- se, im-|pre- se,|si, ch'a- ven-|do le|re- tin-|dar- * *|no te- *|
 G,4 C,2 F,2- | F,E, D,3 C, B,,2 | C,4 G,,4 | z8 | z4 z2 F,,2 | G,,2 G,,2 A,,2 B,,2 | %59
w: se, in- dar-|* * * * no|te- se,||il|mio du- 'a- ver-|
 G,,4 F,,2 C,2- | C,2 G,,2 D,4 | G,,2 B,,4 A,,2 | B,,4 F,,2 F,2- | F,2 E,2 D,4 | C,2 F,2 F,2 F,2 | %65
w: sa- rio se|_ ne scor-|ni, se ne|schor- ni, se-|* ne schor-|ni, il mio du-|
 D,2 _E,2 C,2 F,,2 | C,4 F,,2 B,,2- | B,,2 A,,2 B,,4 | F,,8 |] %69
w: ro a- ver- sa-|rio se- ne|_ scor- *|ni.|

